resources/godot_icons/dark/RootMotionView.svg

<svg height="16" viewBox="0 0 16 16" width="16" xmlns="http://www.w3.org/2000/svg" xmlns:xlink="http://www.w3.org/1999/xlink"><radialGradient id="a" cx="8" cy="8" gradientTransform="matrix(.85714281 -.00000007 .00000004 .85714284 1.142858 1.142858)" gradientUnits="userSpaceOnUse" r="7"><stop offset="0" stop-color="#fc9c9c"/><stop offset=".83333331" stop-color="#fc7f7f" stop-opacity=".701961"/><stop offset="1" stop-color="#fc7f7f" stop-opacity="0"/></radialGradient><path d="m5 2v3h-3v2h3v2h-3v2h3v3h2v-3h2v3h2v-3h3v-2h-3v-2h3v-2h-3v-3h-2v3h-2v-3zm2 5h2v2h-2z" fill="url(#a)"/></svg>

<svg height="16" viewBox="0 0 16 16" width="16" xmlns="http://www.w3.org/2000/svg"><radialGradient id="a" cx="8" cy="8" gradientUnits="userSpaceOnUse" r="6"><stop offset="0" stop-color="#fc9c9c"/><stop offset=".833" stop-color="#fc7f7f" stop-opacity=".7"/><stop offset="1" stop-color="#fc7f7f" stop-opacity="0"/></radialGradient><path d="M5 2v3H2v2h3v2H2v2h3v3h2v-3h2v3h2v-3h3V9h-3V7h3V5h-3V2H9v3H7V2zm2 5h2v2H7z" fill="url(#a)"/></svg>
